src/assets/icons/encrypting.svg

<?xml version="1.0" encoding="UTF-8"?>
<svg width="120px" height="121px" viewBox="0 0 120 121" version="1.1" xmlns="http://www.w3.org/2000/svg" xmlns:xlink="http://www.w3.org/1999/xlink">
    <title>编组</title>
    <defs>
        <linearGradient x1="100%" y1="49.4260204%" x2="33.1908384%" y2="49.8953917%" id="linearGradient-1">
            <stop stop-color="#3D3835" offset="0%"></stop>
            <stop stop-color="#33618E" offset="100%"></stop>
        </linearGradient>
        <linearGradient x1="81.1709339%" y1="52.4859433%" x2="50%" y2="50%" id="linearGradient-2">
            <stop stop-color="#FFFFFF" stop-opacity="0" offset="0%"></stop>
            <stop stop-color="#FFFFFF" stop-opacity="0.6" offset="100%"></stop>
        </linearGradient>
        <linearGradient x1="50%" y1="50%" x2="0%" y2="12.4444444%" id="linearGradient-3">
            <stop stop-color="#FFB729" offset="0%"></stop>
            <stop stop-color="#5BAFF2" offset="100%"></stop>
        </linearGradient>
        <linearGradient x1="0%" y1="12.4444444%" x2="50%" y2="50%" id="linearGradient-4">
            <stop stop-color="#FFFFFF" stop-opacity="0.9" offset="0%"></stop>
            <stop stop-color="#FFFFFF" stop-opacity="0" offset="100%"></stop>
        </linearGradient>
        <linearGradient x1="100%" y1="37.5%" x2="33.1908384%" y2="47.7218643%" id="linearGradient-5">
            <stop stop-color="#3D3835" offset="0%"></stop>
            <stop stop-color="#33618E" offset="100%"></stop>
        </linearGradient>
        <linearGradient x1="69.7273555%" y1="39.2077093%" x2="50%" y2="50%" id="linearGradient-6">
            <stop stop-color="#FFFFFF" stop-opacity="0" offset="0%"></stop>
            <stop stop-color="#FFFFFF" stop-opacity="0.9" offset="100%"></stop>
        </linearGradient>
        <radialGradient cx="7.44159113%" cy="6.81581274%" fx="7.44159113%" fy="6.81581274%" r="98.7713881%" gradientTransform="translate(0.074416,0.068158),scale(0.840000,1.000000),rotate(61.786495),translate(-0.074416,-0.068158)" id="radialGradient-7">
            <stop stop-color="#95BFFF" offset="0%"></stop>
            <stop stop-color="#E6B44F" offset="100%"></stop>
        </radialGradient>
        <radialGradient cx="9.64585919%" cy="9.70003214%" fx="9.64585919%" fy="9.70003214%" r="58.9793238%" gradientTransform="translate(0.096459,0.097000),scale(0.840000,1.000000),rotate(66.907423),scale(1.000000,1.512724),translate(-0.096459,-0.097000)" id="radialGradient-8">
            <stop stop-color="#FFFFFF" stop-opacity="0.973410866" offset="0%"></stop>
            <stop stop-color="#FFFFFF" stop-opacity="0" offset="100%"></stop>
        </radialGradient>
        <path d="M18,20 L102,20 C106.418278,20 110,23.581722 110,28 L110,96 C110,100.418278 106.418278,104 102,104 L18,104 C13.581722,104 10,100.418278 10,96 L10,28 C10,23.581722 13.581722,20 18,20 Z" id="path-9"></path>
        <filter x="-0.5%" y="-0.6%" width="102.0%" height="102.4%" filterUnits="objectBoundingBox" id="filter-10">
            <feOffset dx="1" dy="1" in="SourceAlpha" result="shadowOffsetOuter1"></feOffset>
            <feComposite in="shadowOffsetOuter1" in2="SourceAlpha" operator="out" result="shadowOffsetOuter1"></feComposite>
            <feColorMatrix values="0 0 0 0 0   0 0 0 0 0   0 0 0 0 0  0 0 0 0.1 0" type="matrix" in="shadowOffsetOuter1"></feColorMatrix>
        </filter>
        <radialGradient cx="-298.743986%" cy="56.892477%" fx="-298.743986%" fy="56.892477%" r="652.792378%" gradientTransform="translate(-2.987440,0.568925),scale(1.000000,0.156250),rotate(39.414466),translate(2.987440,-0.568925)" id="radialGradient-11">
            <stop stop-color="#FFFFFF" stop-opacity="0.80159306" offset="0%"></stop>
            <stop stop-color="#5B72F6" stop-opacity="0.249069534" offset="100%"></stop>
        </radialGradient>
        <radialGradient cx="9.64585919%" cy="9.70003214%" fx="9.64585919%" fy="9.70003214%" r="347.765358%" gradientTransform="translate(0.096459,0.097000),scale(1.000000,0.156250),rotate(86.796910),scale(1.000000,1.512724),translate(-0.096459,-0.097000)" id="radialGradient-12">
            <stop stop-color="#FFFFFF" stop-opacity="0.973410866" offset="0%"></stop>
            <stop stop-color="#FFFFFF" stop-opacity="0" offset="100%"></stop>
        </radialGradient>
        <radialGradient cx="50%" cy="50%" fx="50%" fy="50%" r="80.8940822%" id="radialGradient-13">
            <stop stop-color="#FED17F" offset="0%"></stop>
            <stop stop-color="#FFFBCE" offset="100%"></stop>
        </radialGradient>
        <path d="M60,32 C76.5685425,32 90,45.4314575 90,62 C90,78.5685425 76.5685425,92 60,92 C43.4314575,92 30,78.5685425 30,62 C30,45.4314575 43.4314575,32 60,32 Z M60,38 C46.745166,38 36,48.745166 36,62 C36,75.254834 46.745166,86 60,86 C73.254834,86 84,75.254834 84,62 C84,48.745166 73.254834,38 60,38 Z M60,56 C63.3137085,56 66,58.6862915 66,62 C66,65.3137085 63.3137085,68 60,68 C56.6862915,68 54,65.3137085 54,62 C54,58.6862915 56.6862915,56 60,56 Z" id="path-14"></path>
        <filter x="-26.7%" y="-23.3%" width="153.3%" height="153.3%" filterUnits="objectBoundingBox" id="filter-15">
            <feOffset dx="0" dy="2" in="SourceAlpha" result="shadowOffsetOuter1"></feOffset>
            <feGaussianBlur stdDeviation="5" in="shadowOffsetOuter1" result="shadowBlurOuter1"></feGaussianBlur>
            <feColorMatrix values="0 0 0 0 0   0 0 0 0 0   0 0 0 0 0  0 0 0 0.2 0" type="matrix" in="shadowBlurOuter1"></feColorMatrix>
        </filter>
        <filter x="-17.5%" y="-14.2%" width="135.0%" height="135.0%" filterUnits="objectBoundingBox" id="filter-16">
            <feOffset dx="1" dy="1" in="SourceAlpha" result="shadowOffsetInner1"></feOffset>
            <feComposite in="shadowOffsetInner1" in2="SourceAlpha" operator="arithmetic" k2="-1" k3="1" result="shadowInnerInner1"></feComposite>
            <feColorMatrix values="0 0 0 0 1   0 0 0 0 1   0 0 0 0 1  0 0 0 0.8 0" type="matrix" in="shadowInnerInner1"></feColorMatrix>
        </filter>
        <circle id="path-17" cx="102" cy="104" r="12"></circle>
        <filter x="-1.0%" y="-1.0%" width="104.2%" height="104.2%" filterUnits="objectBoundingBox" id="filter-18">
            <feOffset dx="0.5" dy="0.5" in="SourceAlpha" result="shadowOffsetOuter1"></feOffset>
            <feComposite in="shadowOffsetOuter1" in2="SourceAlpha" operator="out" result="shadowOffsetOuter1"></feComposite>
            <feColorMatrix values="0 0 0 0 0.941176471   0 0 0 0 0.611764706   0 0 0 0 0  0 0 0 0.5 0" type="matrix" in="shadowOffsetOuter1"></feColorMatrix>
        </filter>
        <filter x="-9.4%" y="-9.4%" width="120.8%" height="120.8%" filterUnits="objectBoundingBox" id="filter-19">
            <feMorphology radius="4" operator="erode" in="SourceAlpha" result="shadowSpreadInner1"></feMorphology>
            <feOffset dx="0.5" dy="0.5" in="shadowSpreadInner1" result="shadowOffsetInner1"></feOffset>
            <feComposite in="shadowOffsetInner1" in2="SourceAlpha" operator="arithmetic" k2="-1" k3="1" result="shadowInnerInner1"></feComposite>
            <feColorMatrix values="0 0 0 0 0.980392157   0 0 0 0 0.654901961   0 0 0 0 0  0 0 0 0.5 0" type="matrix" in="shadowInnerInner1"></feColorMatrix>
        </filter>
        <circle id="path-20" cx="90" cy="108" r="12"></circle>
        <filter x="-1.0%" y="-1.0%" width="104.2%" height="104.2%" filterUnits="objectBoundingBox" id="filter-21">
            <feOffset dx="0.5" dy="0.5" in="SourceAlpha" result="shadowOffsetOuter1"></feOffset>
            <feComposite in="shadowOffsetOuter1" in2="SourceAlpha" operator="out" result="shadowOffsetOuter1"></feComposite>
            <feColorMatrix values="0 0 0 0 0.941176471   0 0 0 0 0.611764706   0 0 0 0 0  0 0 0 0.5 0" type="matrix" in="shadowOffsetOuter1"></feColorMatrix>
        </filter>
        <filter x="-9.4%" y="-9.4%" width="120.8%" height="120.8%" filterUnits="objectBoundingBox" id="filter-22">
            <feMorphology radius="4" operator="erode" in="SourceAlpha" result="shadowSpreadInner1"></feMorphology>
            <feOffset dx="0.5" dy="0.5" in="shadowSpreadInner1" result="shadowOffsetInner1"></feOffset>
            <feComposite in="shadowOffsetInner1" in2="SourceAlpha" operator="arithmetic" k2="-1" k3="1" result="shadowInnerInner1"></feComposite>
            <feColorMatrix values="0 0 0 0 0.980392157   0 0 0 0 0.654901961   0 0 0 0 0  0 0 0 0.5 0" type="matrix" in="shadowInnerInner1"></feColorMatrix>
        </filter>
    </defs>
    <g id="WEB" stroke="none" stroke-width="1" fill="none" fill-rule="evenodd">
        <g id="正在加密钱包" transform="translate(-900.000000, -444.000000)">
            <g id="编组" transform="translate(796.000000, 444.000000)">
                <g transform="translate(104.000000, 0.000000)">
                    <path d="M94.9722436,0.25 C96.8971372,0.25 98.7789622,0.819770768 100.380571,1.88750963 L100.380571,1.88750963 L115.174306,11.75 L4.82569391,11.75 L19.6194295,1.88750963 C21.2210378,0.819770768 23.1028628,0.25 25.0277564,0.25 L25.0277564,0.25 Z" id="矩形" stroke="url(#linearGradient-2)" stroke-width="0.5" fill="url(#linearGradient-1)" opacity="0.800000012"></path>
                    <path d="M110,10.25 C112.692388,10.25 115.129888,11.3413059 116.894291,13.1057089 C118.658694,14.8701118 119.75,17.3076118 119.75,20 L119.75,20 L119.75,104 C119.75,106.692388 118.658694,109.129888 116.894291,110.894291 C115.129888,112.658694 112.692388,113.75 110,113.75 L110,113.75 L10,113.75 C7.30761184,113.75 4.87011184,112.658694 3.10570888,110.894291 C1.34130592,109.129888 0.25,106.692388 0.25,104 L0.25,104 L0.25,20 C0.25,17.3076118 1.34130592,14.8701118 3.10570888,13.1057089 C4.87011184,11.3413059 7.30761184,10.25 10,10.25 L10,10.25 L110,10.25 Z" id="矩形备份" stroke="url(#linearGradient-4)" stroke-width="0.5" fill-opacity="0.7" fill="url(#linearGradient-3)"></path>
                    <path d="M21.5328707,114.25 L18.9794536,118.080126 C18.2839569,119.123371 17.1130894,119.75 15.859265,119.75 L15.859265,119.75 L12,119.75 C11.5167508,119.75 11.0792508,119.554125 10.7625631,119.237437 C10.4458754,118.920749 10.25,118.483249 10.25,118 L10.25,118 L10.25,114.25 L21.5328707,114.25 Z" id="矩形" stroke="url(#linearGradient-6)" stroke-width="0.5" fill="url(#linearGradient-5)" opacity="0.800000012"></path>
                    <path d="M98.4671293,114.25 L109.75,114.25 L109.75,118 C109.75,118.483249 109.554125,118.920749 109.237437,119.237437 C108.920749,119.554125 108.483249,119.75 108,119.75 L108,119.75 L104.140735,119.75 C102.886911,119.75 101.716043,119.123371 101.020546,118.080126 L101.020546,118.080126 L98.4671293,114.25 Z" id="矩形备份-19" stroke="url(#linearGradient-6)" stroke-width="0.5" fill="url(#linearGradient-5)" opacity="0.800000012"></path>
                    <g id="矩形备份-3" opacity="0.600000024">
                        <use fill="black" fill-opacity="1" filter="url(#filter-10)" xlink:href="#path-9"></use>
                        <path stroke="url(#radialGradient-8)" stroke-width="0.5" d="M102,20.25 C104.140103,20.25 106.077603,21.1174483 107.480078,22.5199224 C108.882552,23.9223966 109.75,25.8598966 109.75,28 L109.75,28 L109.75,96 C109.75,98.1401034 108.882552,100.077603 107.480078,101.480078 C106.077603,102.882552 104.140103,103.75 102,103.75 L102,103.75 L18,103.75 C15.8598966,103.75 13.9223966,102.882552 12.5199224,101.480078 C11.1174483,100.077603 10.25,98.1401034 10.25,96 L10.25,96 L10.25,28 C10.25,25.8598966 11.1174483,23.9223966 12.5199224,22.5199224 C13.9223966,21.1174483 15.8598966,20.25 18,20.25 L18,20.25 Z" stroke-linejoin="square" fill="url(#radialGradient-7)" fill-rule="evenodd"></path>
                    </g>
                    <circle id="椭圆形" fill="#FFEB00" opacity="0.5" cx="101" cy="29" r="3"></circle>
                    <path d="M11,74.25 C12.0355339,74.25 12.9730339,74.669733 13.6516504,75.3483496 C14.330267,76.0269661 14.75,76.9644661 14.75,78 L14.75,78 L14.75,90 C14.75,91.0355339 14.330267,91.9730339 13.6516504,92.6516504 C12.9730339,93.330267 12.0355339,93.75 11,93.75 L11,93.75 L9,93.75 C7.96446609,93.75 7.02696609,93.330267 6.34834957,92.6516504 C5.66973305,91.9730339 5.25,91.0355339 5.25,90 L5.25,90 L5.25,78 C5.25,76.9644661 5.66973305,76.0269661 6.34834957,75.3483496 C7.02696609,74.669733 7.96446609,74.25 9,74.25 L9,74.25 Z M11,30.25 C12.0355339,30.25 12.9730339,30.669733 13.6516504,31.3483496 C14.330267,32.0269661 14.75,32.9644661 14.75,34 L14.75,34 L14.75,46 C14.75,47.0355339 14.330267,47.9730339 13.6516504,48.6516504 C12.9730339,49.330267 12.0355339,49.75 11,49.75 L11,49.75 L9,49.75 C7.96446609,49.75 7.02696609,49.330267 6.34834957,48.6516504 C5.66973305,47.9730339 5.25,47.0355339 5.25,46 L5.25,46 L5.25,34 C5.25,32.9644661 5.66973305,32.0269661 6.34834957,31.3483496 C7.02696609,30.669733 7.96446609,30.25 9,30.25 L9,30.25 Z" id="形状结合" stroke="url(#radialGradient-12)" stroke-width="0.5" fill="url(#radialGradient-11)" opacity="0.600000024"></path>
                    <path d="M64,37 L64,45 L62.267,59.733 L77,58 L85,58 L85,66 L77,66 L62.267,64.267 L64,79 L64,87 L56,87 L56,79 L57.733,64.267 L43,66 L35,66 L35,58 L43,58 L57.733,59.733 L56,45 L56,37 L64,37 Z" id="形状结合" fill="url(#radialGradient-13)" transform="translate(60.000000, 62.000000) rotate(20.000000) translate(-60.000000, -62.000000) "></path>
                    <g id="形状结合">
                        <use fill="black" fill-opacity="1" filter="url(#filter-15)" xlink:href="#path-14"></use>
                        <use fill="#FEF6DE" fill-rule="evenodd" xlink:href="#path-14"></use>
                        <use fill="black" fill-opacity="1" filter="url(#filter-16)" xlink:href="#path-14"></use>
                    </g>
                    <g id="椭圆形备份-4">
                        <use fill="black" fill-opacity="1" filter="url(#filter-18)" xlink:href="#path-17"></use>
                        <use fill="#FFEB00" fill-rule="evenodd" xlink:href="#path-17"></use>
                        <use fill="black" fill-opacity="1" filter="url(#filter-19)" xlink:href="#path-17"></use>
                        <circle stroke="#FFDB00" stroke-width="4" stroke-linejoin="square" cx="102" cy="104" r="10"></circle>
                    </g>
                    <g id="椭圆形备份-7">
                        <use fill="black" fill-opacity="1" filter="url(#filter-21)" xlink:href="#path-20"></use>
                        <use fill="#FFEB00" fill-rule="evenodd" xlink:href="#path-20"></use>
                        <use fill="black" fill-opacity="1" filter="url(#filter-22)" xlink:href="#path-20"></use>
                        <circle stroke="#FFDB00" stroke-width="4" stroke-linejoin="square" cx="90" cy="108" r="10"></circle>
                    </g>
                </g>
            </g>
        </g>
    </g>
</svg>

<svg width="120" height="121" xmlns="http://www.w3.org/2000/svg" xmlns:xlink="http://www.w3.org/1999/xlink"><defs><filter x="-9.4%" y="-9.4%" width="120.8%" height="120.8%" filterUnits="objectBoundingBox" id="v"><feMorphology radius="4" in="SourceAlpha" result="shadowSpreadInner1"/><feOffset dx=".5" dy=".5" in="shadowSpreadInner1" result="shadowOffsetInner1"/><feComposite in="shadowOffsetInner1" in2="SourceAlpha" operator="arithmetic" k2="-1" k3="1" result="shadowInnerInner1"/><feColorMatrix values="0 0 0 0 0.980392157 0 0 0 0 0.654901961 0 0 0 0 0 0 0 0 0.5 0" in="shadowInnerInner1"/></filter><filter x="-1%" y="-1%" width="104.2%" height="104.2%" filterUnits="objectBoundingBox" id="t"><feOffset dx=".5" dy=".5" in="SourceAlpha" result="shadowOffsetOuter1"/><feComposite in="shadowOffsetOuter1" in2="SourceAlpha" operator="out" result="shadowOffsetOuter1"/><feColorMatrix values="0 0 0 0 0.941176471 0 0 0 0 0.611764706 0 0 0 0 0 0 0 0 0.5 0" in="shadowOffsetOuter1"/></filter><filter x="-9.4%" y="-9.4%" width="120.8%" height="120.8%" filterUnits="objectBoundingBox" id="s"><feMorphology radius="4" in="SourceAlpha" result="shadowSpreadInner1"/><feOffset dx=".5" dy=".5" in="shadowSpreadInner1" result="shadowOffsetInner1"/><feComposite in="shadowOffsetInner1" in2="SourceAlpha" operator="arithmetic" k2="-1" k3="1" result="shadowInnerInner1"/><feColorMatrix values="0 0 0 0 0.980392157 0 0 0 0 0.654901961 0 0 0 0 0 0 0 0 0.5 0" in="shadowInnerInner1"/></filter><filter x="-1%" y="-1%" width="104.2%" height="104.2%" filterUnits="objectBoundingBox" id="q"><feOffset dx=".5" dy=".5" in="SourceAlpha" result="shadowOffsetOuter1"/><feComposite in="shadowOffsetOuter1" in2="SourceAlpha" operator="out" result="shadowOffsetOuter1"/><feColorMatrix values="0 0 0 0 0.941176471 0 0 0 0 0.611764706 0 0 0 0 0 0 0 0 0.5 0" in="shadowOffsetOuter1"/></filter><filter x="-.5%" y="-.6%" width="102%" height="102.4%" filterUnits="objectBoundingBox" id="g"><feOffset dx="1" dy="1" in="SourceAlpha" result="shadowOffsetOuter1"/><feComposite in="shadowOffsetOuter1" in2="SourceAlpha" operator="out" result="shadowOffsetOuter1"/><feColorMatrix values="0 0 0 0 0 0 0 0 0 0 0 0 0 0 0 0 0 0 0.1 0" in="shadowOffsetOuter1"/></filter><filter x="-17.5%" y="-14.2%" width="135%" height="135%" filterUnits="objectBoundingBox" id="p"><feOffset dx="1" dy="1" in="SourceAlpha" result="shadowOffsetInner1"/><feComposite in="shadowOffsetInner1" in2="SourceAlpha" operator="arithmetic" k2="-1" k3="1" result="shadowInnerInner1"/><feColorMatrix values="0 0 0 0 1 0 0 0 0 1 0 0 0 0 1 0 0 0 0.8 0" in="shadowInnerInner1"/></filter><filter x="-26.7%" y="-23.3%" width="153.3%" height="153.3%" filterUnits="objectBoundingBox" id="n"><feOffset dy="2" in="SourceAlpha" result="shadowOffsetOuter1"/><feGaussianBlur stdDeviation="5" in="shadowOffsetOuter1" result="shadowBlurOuter1"/><feColorMatrix values="0 0 0 0 0 0 0 0 0 0 0 0 0 0 0 0 0 0 0.2 0" in="shadowBlurOuter1"/></filter><linearGradient x1="50%" y1="50%" x2="0%" y2="12.444%" id="d"><stop stop-color="#FFB729" offset="0%"/><stop stop-color="#5BAFF2" offset="100%"/></linearGradient><linearGradient x1="0%" y1="12.444%" x2="50%" y2="50%" id="c"><stop stop-color="#FFF" stop-opacity=".9" offset="0%"/><stop stop-color="#FFF" stop-opacity="0" offset="100%"/></linearGradient><linearGradient x1="100%" y1="37.5%" x2="33.191%" y2="47.722%" id="f"><stop stop-color="#3D3835" offset="0%"/><stop stop-color="#33618E" offset="100%"/></linearGradient><linearGradient x1="69.727%" y1="39.208%" x2="50%" y2="50%" id="e"><stop stop-color="#FFF" stop-opacity="0" offset="0%"/><stop stop-color="#FFF" stop-opacity=".9" offset="100%"/></linearGradient><linearGradient x1="81.171%" y1="52.486%" x2="50%" y2="50%" id="a"><stop stop-color="#FFF" stop-opacity="0" offset="0%"/><stop stop-color="#FFF" stop-opacity=".6" offset="100%"/></linearGradient><linearGradient x1="100%" y1="49.426%" x2="33.191%" y2="49.895%" id="b"><stop stop-color="#3D3835" offset="0%"/><stop stop-color="#33618E" offset="100%"/></linearGradient><radialGradient cx="50%" cy="50%" fx="50%" fy="50%" r="80.894%" id="m"><stop stop-color="#FED17F" offset="0%"/><stop stop-color="#FFFBCE" offset="100%"/></radialGradient><radialGradient cx="-298.744%" cy="56.892%" fx="-298.744%" fy="56.892%" r="652.792%" gradientTransform="scale(1 .15625) rotate(39.414 -7.276 2.105)" id="l"><stop stop-color="#FFF" stop-opacity=".802" offset="0%"/><stop stop-color="#5B72F6" stop-opacity=".249" offset="100%"/></radialGradient><radialGradient cx="9.646%" cy="9.7%" fx="9.646%" fy="9.7%" r="58.979%" gradientTransform="matrix(.32946 .91987 -1.16887 .59332 .178 -.05)" id="i"><stop stop-color="#FFF" stop-opacity=".973" offset="0%"/><stop stop-color="#FFF" stop-opacity="0" offset="100%"/></radialGradient><radialGradient cx="7.442%" cy="6.816%" fx="7.442%" fy="6.816%" r="98.771%" gradientTransform="scale(.84 1) rotate(61.786 .082 .08)" id="j"><stop stop-color="#95BFFF" offset="0%"/><stop stop-color="#E6B44F" offset="100%"/></radialGradient><radialGradient cx="9.646%" cy="9.7%" fx="9.646%" fy="9.7%" r="347.765%" gradientTransform="matrix(.05588 .156 -1.51036 .0132 .238 .08)" id="k"><stop stop-color="#FFF" stop-opacity=".973" offset="0%"/><stop stop-color="#FFF" stop-opacity="0" offset="100%"/></radialGradient><circle id="r" cx="102" cy="104" r="12"/><circle id="u" cx="90" cy="108" r="12"/><path d="M60 32c16.569 0 30 13.431 30 30 0 16.569-13.431 30-30 30-16.569 0-30-13.431-30-30 0-16.569 13.431-30 30-30zm0 6c-13.255 0-24 10.745-24 24s10.745 24 24 24 24-10.745 24-24-10.745-24-24-24zm0 18a6 6 0 1 1 0 12 6 6 0 0 1 0-12z" id="o"/><path d="M18 20h84a8 8 0 0 1 8 8v68a8 8 0 0 1-8 8H18a8 8 0 0 1-8-8V28a8 8 0 0 1 8-8z" id="h"/></defs><g fill="none" fill-rule="evenodd"><path d="M94.972.25a9.75 9.75 0 0 1 5.409 1.638l14.793 9.862H4.826l14.793-9.862A9.75 9.75 0 0 1 25.028.25z" stroke="url(#a)" stroke-width=".5" fill="url(#b)" opacity=".8"/><path d="M110 10.25a9.72 9.72 0 0 1 6.894 2.856A9.72 9.72 0 0 1 119.75 20v84a9.72 9.72 0 0 1-2.856 6.894A9.72 9.72 0 0 1 110 113.75H10a9.72 9.72 0 0 1-6.894-2.856A9.72 9.72 0 0 1 .25 104V20a9.72 9.72 0 0 1 2.856-6.894A9.72 9.72 0 0 1 10 10.25h100z" stroke="url(#c)" stroke-width=".5" fill-opacity=".7" fill="url(#d)"/><path d="m21.533 114.25-2.554 3.83a3.75 3.75 0 0 1-3.12 1.67H12c-.483 0-.92-.196-1.237-.513A1.745 1.745 0 0 1 10.25 118v-3.75h11.283zM98.467 114.25h11.283V118c0 .483-.196.92-.513 1.237a1.745 1.745 0 0 1-1.237.513h-3.86a3.75 3.75 0 0 1-3.12-1.67l-2.553-3.83z" stroke="url(#e)" stroke-width=".5" fill="url(#f)" opacity=".8"/><g opacity=".6"><use fill="#000" filter="url(#g)" xlink:href="#h"/><path stroke="url(#i)" stroke-width=".5" d="M102 20.25c2.14 0 4.078.867 5.48 2.27a7.726 7.726 0 0 1 2.27 5.48v68c0 2.14-.867 4.078-2.27 5.48a7.726 7.726 0 0 1-5.48 2.27H18a7.726 7.726 0 0 1-5.48-2.27A7.726 7.726 0 0 1 10.25 96V28c0-2.14.867-4.078 2.27-5.48A7.726 7.726 0 0 1 18 20.25z" stroke-linejoin="square" fill="url(#j)"/></g><circle fill="#FFEB00" opacity=".5" cx="101" cy="29" r="3"/><path d="M11 74.25c1.036 0 1.973.42 2.652 1.098A3.738 3.738 0 0 1 14.75 78v12c0 1.036-.42 1.973-1.098 2.652A3.738 3.738 0 0 1 11 93.75H9a3.738 3.738 0 0 1-2.652-1.098A3.738 3.738 0 0 1 5.25 90V78c0-1.036.42-1.973 1.098-2.652A3.738 3.738 0 0 1 9 74.25zm0-44c1.036 0 1.973.42 2.652 1.098A3.738 3.738 0 0 1 14.75 34v12c0 1.036-.42 1.973-1.098 2.652A3.738 3.738 0 0 1 11 49.75H9a3.738 3.738 0 0 1-2.652-1.098A3.738 3.738 0 0 1 5.25 46V34c0-1.036.42-1.973 1.098-2.652A3.738 3.738 0 0 1 9 30.25z" stroke="url(#k)" stroke-width=".5" fill="url(#l)" opacity=".6"/><path d="M64 37v8l-1.733 14.733L77 58h8v8h-8l-14.733-1.733L64 79v8h-8v-8l1.733-14.733L43 66h-8v-8h8l14.733 1.733L56 45v-8h8z" fill="url(#m)" transform="rotate(20 60 62)"/><use fill="#000" filter="url(#n)" xlink:href="#o"/><use fill="#FEF6DE" xlink:href="#o"/><use fill="#000" filter="url(#p)" xlink:href="#o"/><g><use fill="#000" filter="url(#q)" xlink:href="#r"/><use fill="#FFEB00" xlink:href="#r"/><use fill="#000" filter="url(#s)" xlink:href="#r"/><circle stroke="#FFDB00" stroke-width="4" stroke-linejoin="square" cx="102" cy="104" r="10"/></g><g><use fill="#000" filter="url(#t)" xlink:href="#u"/><use fill="#FFEB00" xlink:href="#u"/><use fill="#000" filter="url(#v)" xlink:href="#u"/><circle stroke="#FFDB00" stroke-width="4" stroke-linejoin="square" cx="90" cy="108" r="10"/></g></g></svg>
